X:1
T:Keep Your Heart Singing
T:Keep Your Heart Singing
T:Charles Hutchinson Gabriel
T:Charles Hutchinson Gabriel, 1902, alt.
T:Public Domain Courtesy of the Cyber Hymnal™
T:Public Domain Courtesy of the Cyber Hymnal™
C:Charles Hutchinson Gabriel
Z:Public Domain
Z:Courtesy of the Cyber Hymnal™
%%score ( 1 2 ) ( 3 4 )
L:1/8
Q:1/4=92
M:4/4
K:Bb
V:1 treble 
V:2 treble 
V:3 bass 
V:4 bass 
V:1
 [DF][DF] | [DB]>[CA] [DB][Ec] [Fd]2 [Fc][FB] | [EA]>[EG] [E^F][EG] [Ec]2 [=EB][EB] | %3
w: 1.~We may|light- en toil and care, Or a|hea- vy bur- den share, With a|
w: 2.~If God’s|love is in our soul, And we|yield to His con- trol, Sweet- est|
w: 3.~How a|word of love will cheer, Kin- dle|hope, and ban- ish fear, Soothe a|
 [EA]>[EA] [EA][EA] [EA][Ge] [EG]>[EA] | [DF]6 [DF][DF] | [DB]>[DA] [DB][Ec] [Fd]2 [Fc][FB] | %6
w: word, a kind- ly deed or sun- ny|smile; We may|gir- dle day and night With a|
w: mu- sic will the lone- ly hours be-|guile; We may|drive the clouds a- way, Cheer and|
w: pain, or take a- way the sting of|guile; Oh, how|much we all may do, In the|
 [EA]>[EG] [E^F][EG] !fermata![Ge]2 [Gd][Gc] | [FB]>[FB] [DF]2 [Fd]<[Fd] [Ec]>[Ec] | [DB]6 z2 || %9
w: ha- lo of de- light, If we|keep our hearts sing- ing all the|while.|
w: bless the dark- est day, If we|keep our hearts sing- ing all the|while.|
w: world we tra- vel thro’, If we|keep our hearts sing- ing all the|while.|
"^Refrain" [Fd]>[Fd] [Fd]2 [Fd]<[D-F] c>B | A6 z2 | [Fe]>[Fe] [Fe]2 [Fe]<[E-G] A>G | F6 z2 | %13
w: Keep your heart sing- ing all the|while,|Make the world bright- er with a|smile,|
w: ||||
w: ||||
 [Ff]>[Ff] [Ff]2 [Ff]<[Fd] [Fc][FB] | [FA][EG][E^F][EG] !fermata![Ge]2 [Gd][Gc] | %15
w: Keep the song ring- ing! Lone- ly|hours we may be- guile, If we|
w: ||
w: ||
 [FB]>[FB] [DF]2 [Fd]<[Fd] [Ec]>[Ec] | [DB]6 |] %17
w: keep our hearts sing- ing all the|while.|
w: ||
w: ||
V:2
 x2 | x8 | x8 | x8 | x8 | x8 | x8 | x8 | x8 || x6 D2 | (E<EE>E E2) x2 | x6 E2 | (D<DD>D D2) x2 | %13
 x8 | x8 | x8 | x6 |] %17
V:3
 [B,,B,][B,,B,] | [B,,B,]>[B,,B,] [B,,B,][B,,B,] [B,,B,]2 [D,B,][D,B,] | %2
w: ~ ~|~ ~ ~ ~ ~ ~ ~|
 [E,B,]>[E,B,] [E,B,][E,B,] [E,G,]2 [C,C][C,C] | [F,C]>[F,C] [F,C][F,C] [F,C][F,A,] [F,A,]>[F,A,] | %4
w: ~ ~ ~ ~ ~ ~ ~|~ ~ ~ ~ ~ ~ ~ ~|
 [B,,B,]6 [B,,B,][B,,B,] | [B,,B,]>[B,,B,] [B,,B,][B,,B,] [B,,B,]2 [D,B,][D,B,] | %6
w: ~ ~ ~|~ ~ ~ ~ ~ ~ ~|
 [E,B,]>[E,B,] [E,B,][E,B,] [C,C]2 [D,=B,][E,C] | [F,D]>[F,D] [F,B,]2 [F,B,]<[F,B,] [F,A,]>[F,A,] | %8
w: ~ ~ ~ ~ ~ ~ ~|~ ~ ~ ~ ~ ~ ~|
 [B,,B,]6 z2 || [B,,B,]>[B,,B,] [B,,B,]2 [B,,B,]<[B,,B,]- [B,,B,]2 | %10
w: ~|~ ~ ~ sing- ing, *|
 [F,C]<[F,C] [F,C]>[F,C] [F,C]2 z2 | [F,C]>[F,C] [F,C]2 [F,C]<[F,A,]- [F,A,]2 | %12
w: sing- ing all the while|~ ~ ~ bright- er, *|
 [B,,B,]<[B,,B,] [D,B,]>[F,B,] [B,,B,]2 z2 | [B,D]>[B,D] [B,D]2 [B,D]<B, [D,B,][D,B,] | %14
w: bright- er with a smile;||
 [E,B,][E,B,][E,B,][E,B,] !fermata![C,C]2 [D,=B,][E,C] | %15
w: |
 [F,D]>[F,D] [F,B,]2 [F,B,]<[F,B,] [F,A,]>[F,A,] | [B,,B,]6 |] %17
w: ||
V:4
 x2 | x8 | x8 | x8 | x8 | x8 | x8 | x8 | x8 || x8 | x8 | x8 | x8 | x9/2 B,3/2 x2 | x8 | x8 | x6 |] %17

